!!!OTL: Die Koenigskinder Ack Elschen Liber Bulle Meinn
!!!ARE: Europa, Mitteleuropa, Deutschland
!!!YOR: 1, S. 219
!!    1613 Handschrift
!!!SCT: Q0020L
!!!YEM: Copyright 1995, estate of Helmut Schaffrath.
**kern
*ICvox
*Ivox
*M3/8
*k[f#]
*G:
{8dd
=1
4dd
8cc
=2
4b
8a
=3
8.b
16a
8g
=4
4a
8b
=5
4cc}
{8cc
=6
4b
8dd
=7
8.dd
16cc
8b
=8
4a
8r
=9
4r}
{8a
=10
4dd
8cc
=11
4b
8a
=12
8.b
16a
8g
=13
4a
8b
=14
4cc}
{8cc
=15
4b
8dd
=16
8.dd
16cc
8b
=17
4a
8r
=18
4r}
{8a
=19
4a
8a
=20
4a
8a
=21
4a
8a
=22
4a}
{8a
=23
8.b
16a
8g
=24
8.a
16g
8a
=25
4g
8g
=26
4g}
==
!!!AGN: Ballade, Liebe, Trennung, Tod
!! Unklare Notation bei der Wiederholung (korrigiert !)
!!    Die"Elslein"-Melodie wird in direkten Zusammenhang zur Balladengruppe
!!    gestellt.
!!!ONB: ESAC (Essen Associative Code) Database: BALLADE
!!!AMT: simple triple
!!!AIN: vox
!!!EED: Helmut Schaffrath
!!!EEV: 1.0
*-
